Origami/64x64/apps/lightsoff.svg

<svg width="64" height="64" version="1" xmlns="http://www.w3.org/2000/svg">
 <path d="m4 56v2c0 1.662 1.338 3 3 3h50c1.662 0 3-1.338 3-3v-2c0 1.662-1.338 3-3 3h-50c-1.662 0-3-1.338-3-3z" style="opacity:.2"/>
 <path d="m32 4h-25c-1.662 0-3 1.338-3 3v25h28z" style="fill:#2d4a5d"/>
 <path d="m32 4h25c1.662 0 3 1.338 3 3v25h-28z" style="fill:#1f8fd7"/>
 <path d="m32 60h-25c-1.662 0-3-1.338-3-3v-25h28z" style="fill:#1f8fd7"/>
 <path d="m32 60h25c1.662 0 3-1.338 3-3v-25h-28z" style="fill:#2d4a5d"/>
 <path d="m7 4c-1.662 0-3 1.338-3 3v1c0-1.662 1.338-3 3-3h50c1.662 0 3 1.338 3 3v-1c0-1.662-1.338-3-3-3h-50z" style="fill:#ffffff;opacity:.1"/>
</svg>

<svg xmlns="http://www.w3.org/2000/svg" width="64" height="64" version="1">
 <path style="opacity:0.2" d="m 4,56 0,2 c 0,1.662 1.338,3 3,3 l 50,0 c 1.662,0 3,-1.338 3,-3 l 0,-2 c 0,1.662 -1.338,3 -3,3 L 7,59 C 5.338,59 4,57.662 4,56 Z"/>
 <path style="fill:#2d4a5d" d="M 32,4 7,4 C 5.338,4 4,5.338 4,7 l 0,25 28,0 z"/>
 <path style="fill:#1f8fd7" d="m 32,4 25,0 c 1.662,0 3,1.338 3,3 l 0,25 -28,0 z"/>
 <path style="fill:#1f8fd7" d="M 32,60 7,60 C 5.338,60 4,58.662 4,57 l 0,-25 28,0 z"/>
 <path style="fill:#2d4a5d" d="m 32,60 25,0 c 1.662,0 3,-1.338 3,-3 l 0,-25 -28,0 z"/>
 <path style="opacity:0.1;fill:#ffffff" d="M 7 4 C 5.338 4 4 5.338 4 7 L 4 8 C 4 6.338 5.338 5 7 5 L 57 5 C 58.662 5 60 6.338 60 8 L 60 7 C 60 5.338 58.662 4 57 4 L 7 4 z"/>
</svg>
